X:1
T:Yule
M:4/4
L:1/4
K:F
 C/2| c A F/2 C C/2| D A C3/2 C/2| A, C F/2 F E/2| F B G3/2| A/2| F E D/2 A, A,/2|\
 B, D E3/2 C/2|

